icons/1_Primary/Eneba.svg

<svg xmlns="http://www.w3.org/2000/svg" width="1024" height="1024" fill="none">
   <g clip-path="url(#a)">
      <path fill="#FF837D" d="M512 1024c282.77 0 512-229.23 512-512S794.77 0 512 0 0 229.23 0 512s229.23 512 512 512Z"/>
      <path fill="#fff" d="M584 393c-.44 2.31-1 4.6-1.6 6.86l.12-.25a85.43 85.43 0 0 1-6.35 16.49c-.26.53-.54 1-.82 1.57l-.13.25a88.039 88.039 0 0 1-13.46 18.85l-.45.46a100.78 100.78 0 0 1-24.69 19.2l-.17.09c-.733.407-1.477.807-2.23 1.2l-1.47.76-.25.12a105.38 105.38 0 0 1-12.5 5.33 134.164 134.164 0 0 1-47.67 7.43 151.686 151.686 0 0 1-26.08-2.45c-1.4-.23-2.81-.48-4.22-.75a444.068 444.068 0 0 0-11.41-2c-26.82-4.44-56.24-7.06-83.61-6.46-9.88.267-19.74.963-29.58 2.09a180.37 180.37 0 0 0-25.7 5 131.566 131.566 0 0 0-23.28 9.53c-.4.21-.79.43-1.19.65a53.867 53.867 0 0 0-12.86 10.64 43.893 43.893 0 0 0-9.27 19.89 170.68 170.68 0 0 1-.14-4.51V494c0-.76 0-1.58.07-2.37s0-1.41.08-2.11.08-1.66.13-2.48c0-.65.07-1.31.12-2 .06-.86.12-1.73.19-2.59 0-.61.1-1.22.15-1.83.08-.9.167-1.797.26-2.69l.18-1.71c.1-.933.21-1.863.33-2.79l.2-1.56c.127-.973.26-1.947.4-2.92l.21-1.38c.16-1.027.323-2.05.49-3.07.06-.38.13-.76.2-1.14.19-1.1.39-2.19.6-3.29l.16-.79c.24-1.21.48-2.41.74-3.61l.05-.23a205.13 205.13 0 0 1 41.21-86l-.66.93a232.341 232.341 0 0 1 93.9-69.73 199.782 199.782 0 0 1 109.06-13.84 20.13 20.13 0 0 1 10.34-9.56 11.578 11.578 0 0 0 6.69-7.54A20.068 20.068 0 0 1 521 257.89a11.498 11.498 0 0 0 5.83-5.75c3.73-7.93 13.29-17.1 20.6-13.21 6.14 3.34 3.11 12.36.78 17.57a11.578 11.578 0 0 0-.93 7.15 13.372 13.372 0 0 1-2.57 11.12 11.823 11.823 0 0 0-2 10.42 14.004 14.004 0 0 1-3.34 14.15A11.573 11.573 0 0 0 537 303a107.201 107.201 0 0 1 40.89 44.46A72.528 72.528 0 0 1 584 393Zm-231.61 73.08c-9.88.267-19.74.963-29.58 2.09a180.37 180.37 0 0 0-25.7 5 131.566 131.566 0 0 0-23.28 9.53c-.4.21-.79.43-1.19.65A53.865 53.865 0 0 0 259.78 494a43.893 43.893 0 0 0-9.27 19.89c-.16 31 27.6 39.49 41.28 12.28C314.52 480.81 371 462.35 436 472.55c-26.82-4.44-56.24-7.06-83.61-6.47ZM618 413.76l.8-1.31a339.674 339.674 0 0 0 21.15-40.91c.27-.58.52-1.17.78-1.76a182.238 182.238 0 0 0 6.95-20 131.558 131.558 0 0 0 4.08-27.78c0-.73.05-1.45.06-2.17a53.663 53.663 0 0 0-2.62-15.19 43.828 43.828 0 0 0-12.75-18.4l.2.11-.13-.11c-26.74-15.55-48 4.2-31.25 29.62 27.33 41.68 15.94 98.41-23.64 148.9a499.262 499.262 0 0 0 28.53-38.83c2.707-3.993 5.32-8.05 7.84-12.17Zm140.6 81.77h.08c28.3-22.08 24.64-34.67-3.89-37.62a225.439 225.439 0 0 0-17.88-72 204.991 204.991 0 0 0-50.81-70.35l-.94-.83c-.76-.68-1.53-1.35-2.3-2l-1.66-1.4-1.61-1.33c-.727-.6-1.46-1.197-2.2-1.79l-1.09-.87a137.835 137.835 0 0 0-2.69-2.09l-.61-.47a284.98 284.98 0 0 0-3.16-2.36l-.12-.09a204.99 204.99 0 0 0-25.78-16l.13.11-.2-.11a43.828 43.828 0 0 1 12.75 18.4 53.663 53.663 0 0 1 2.62 15.19c0 .72 0 1.45-.06 2.17a131.553 131.553 0 0 1-4.09 27.73 182.238 182.238 0 0 1-6.95 20c-.26.59-.51 1.17-.78 1.76a339.674 339.674 0 0 1-21.15 40.91l-.8 1.31a344.193 344.193 0 0 1-7.82 12.2 497.67 497.67 0 0 1-28.53 38.83 527.82 527.82 0 0 1-9.79 11.7A151.733 151.733 0 0 0 556 510.76a133.909 133.909 0 0 0-10 25.87c-.27.94-.54 1.87-.78 2.81a105.472 105.472 0 0 0-2.22 40.14c0 .36.1.72.15 1.08.08.52.15 1 .23 1.57.153.947.317 1.887.49 2.82.07.34.14.68.2 1 .127.633.26 1.263.4 1.89.58 2.63 1.24 5.25 2 7.84A88.075 88.075 0 0 0 573.2 637a72.531 72.531 0 0 0 42.6 17.49 112.556 112.556 0 0 0 92.27-40.11 159.02 159.02 0 0 0 16.25-21.77 15.703 15.703 0 0 1 5.29-5.13c49.52-29.54 55.5-45.86 23.94-48.82 43.99-28.13 43.53-42.52 5.05-43.14v.01ZM628.85 691.34c-49.78 3-93.46-35.09-117.55-94.62l.22.57.31.8c.847 2.18 1.71 4.353 2.59 6.52l.36.88c.9 2.207 1.817 4.407 2.75 6.6l.15.36A513.779 513.779 0 0 0 530.9 641l.12.24c4 7.91 8.21 15.66 12.6 23.12a339.588 339.588 0 0 0 19.69 29.49l.48.66a178.095 178.095 0 0 0 16.85 19.09 131.46 131.46 0 0 0 19.67 15.15l.43.26a52.918 52.918 0 0 0 18.48 6.52 43.818 43.818 0 0 0 18.51-1.88l1.23-.48v.08c26.89-15.56 20.28-43.78-10.11-41.91Zm5.7 50.77A43.813 43.813 0 0 1 616 744a52.918 52.918 0 0 1-18.48-6.52l-.43-.26A131.49 131.49 0 0 1 577.47 722a178.005 178.005 0 0 1-16.85-19l-.48-.66a339.588 339.588 0 0 1-19.69-29.49c-4.39-7.45-8.6-15.21-12.6-23.12l-.12-.24a474.56 474.56 0 0 1-13.21-28.51l-.15-.36a475.395 475.395 0 0 1-2.75-6.6l-.36-.88c-.88-2.167-1.743-4.34-2.59-6.52l-.31-.8-.22-.57c-.82-2.12-1.627-4.247-2.42-6.38l-.11-.3a460.766 460.766 0 0 1-2.66-7.37c-.48-1.37-1-2.71-1.48-4 16.87-12.51 22.85-22.46 17.49-29.38-4.59-5.83-17.41-9.48-38.94-10.65l-.19-.24a152.959 152.959 0 0 0-2.44-3.16 129.508 129.508 0 0 0-12.15-13.39 105.502 105.502 0 0 0-26.79-18.8 98.89 98.89 0 0 0-25.14-8.61 88.05 88.05 0 0 0-17.53-1.73h-2.02a85.808 85.808 0 0 0-20.63 2.92h.3c-2.25.59-4.47 1.27-6.68 2a72.535 72.535 0 0 0-36.38 28.14 110.681 110.681 0 0 0-14 90.56c-12.59 17.33-17.88 29.62-16.17 36.85 1.94 8.55 13.53 10.11 34 4.9a214.145 214.145 0 0 0 53 58.84 232.343 232.343 0 0 0 106.52 46.05h-.28l1.38.2 1.94.28 1.59.23c1.6.22 3.2.43 4.81.61a205.051 205.051 0 0 0 103.73-15.74l.11-.08c1.333-.58 2.667-1.173 4-1.78l.35-.16c1.253-.58 2.503-1.173 3.75-1.78l.48-.23c1.2-.587 2.393-1.187 3.58-1.8l.58-.3c1.16-.6 2.317-1.213 3.47-1.84l.63-.34c1.14-.627 2.277-1.263 3.41-1.91l.62-.35c1.153-.667 2.3-1.333 3.44-2l.54-.32c1.333-.8 2.64-1.613 3.92-2.44-.4.1-.77.25-1.22.36Z"/>
   </g>
   <defs>
      <clipPath id="a">
         <path fill="#fff" d="M0 0h1024v1024H0z"/>
      </clipPath>
   </defs>
</svg>

<svg width="1024" height="1024" viewBox="0 0 1024 1024" fill="none" xmlns="http://www.w3.org/2000/svg">
<g clip-path="url(#clip0_2_2085)">
<path d="M512 1024C794.77 1024 1024 794.77 1024 512C1024 229.23 794.77 0 512 0C229.23 0 0 229.23 0 512C0 794.77 229.23 1024 512 1024Z" fill="#FF837D"/>
<path d="M584 393C583.56 395.31 583 397.6 582.4 399.86L582.52 399.61C580.979 405.311 578.851 410.838 576.17 416.1C575.91 416.63 575.63 417.1 575.35 417.67L575.22 417.92C571.583 424.769 567.057 431.107 561.76 436.77L561.31 437.23C554.129 444.876 545.799 451.354 536.62 456.43L536.45 456.52C535.717 456.927 534.973 457.327 534.22 457.72L532.75 458.48L532.5 458.6C528.452 460.644 524.277 462.424 520 463.93C504.69 469.267 488.538 471.784 472.33 471.36C463.582 471.297 454.856 470.477 446.25 468.91C444.85 468.68 443.44 468.43 442.03 468.16C438.29 467.453 434.487 466.787 430.62 466.16C403.8 461.72 374.38 459.1 347.01 459.7C337.13 459.967 327.27 460.663 317.43 461.79C308.753 462.832 300.164 464.503 291.73 466.79C283.683 469.216 275.888 472.407 268.45 476.32C268.05 476.53 267.66 476.75 267.26 476.97C262.446 479.827 258.108 483.417 254.4 487.61C249.676 493.348 246.486 500.192 245.13 507.5C245.063 505.993 245.017 504.49 244.99 502.99V494C244.99 493.24 244.99 492.42 245.06 491.63C245.13 490.84 245.06 490.22 245.14 489.52C245.22 488.82 245.22 487.86 245.27 487.04C245.27 486.39 245.34 485.73 245.39 485.04C245.45 484.18 245.51 483.31 245.58 482.45C245.58 481.84 245.68 481.23 245.73 480.62C245.81 479.72 245.897 478.823 245.99 477.93L246.17 476.22C246.27 475.287 246.38 474.357 246.5 473.43L246.7 471.87C246.827 470.897 246.96 469.923 247.1 468.95L247.31 467.57C247.47 466.543 247.633 465.52 247.8 464.5C247.86 464.12 247.93 463.74 248 463.36C248.19 462.26 248.39 461.17 248.6 460.07L248.76 459.28C249 458.07 249.24 456.87 249.5 455.67L249.55 455.44C256.34 423.934 270.458 394.471 290.76 369.44L290.1 370.37C314.942 339.5 347.266 315.496 384 300.64C418.344 285.918 456.128 281.124 493.06 286.8C495.243 282.472 498.915 279.078 503.4 277.24C505.011 276.569 506.45 275.542 507.608 274.236C508.767 272.93 509.615 271.38 510.09 269.7C510.996 267.086 512.432 264.687 514.31 262.654C516.188 260.622 518.465 259 521 257.89C523.583 256.754 525.658 254.707 526.83 252.14C530.56 244.21 540.12 235.04 547.43 238.93C553.57 242.27 550.54 251.29 548.21 256.5C547.147 258.724 546.821 261.228 547.28 263.65C547.699 265.578 547.685 267.575 547.241 269.498C546.797 271.421 545.932 273.221 544.71 274.77C543.588 276.231 542.822 277.934 542.475 279.743C542.128 281.552 542.208 283.417 542.71 285.19C543.502 287.628 543.61 290.237 543.021 292.733C542.432 295.228 541.169 297.513 539.37 299.34C538.355 300.399 537.551 301.641 537 303C554.61 313.594 568.803 329.027 577.89 347.46C584.808 361.577 586.953 377.559 584 393ZM352.39 466.08C342.51 466.347 332.65 467.043 322.81 468.17C314.133 469.212 305.544 470.883 297.11 473.17C289.063 475.596 281.268 478.787 273.83 482.7C273.43 482.91 273.04 483.13 272.64 483.35C267.826 486.21 263.487 489.803 259.78 494C255.056 499.738 251.866 506.582 250.51 513.89C250.35 544.89 278.11 553.38 291.79 526.17C314.52 480.81 371 462.35 436 472.55C409.18 468.11 379.76 465.49 352.39 466.08ZM618 413.76L618.8 412.45C626.767 399.308 633.834 385.639 639.95 371.54C640.22 370.96 640.47 370.37 640.73 369.78C643.432 363.254 645.753 356.576 647.68 349.78C650.027 340.692 651.395 331.379 651.76 322C651.76 321.27 651.81 320.55 651.82 319.83C651.682 314.667 650.8 309.551 649.2 304.64C646.614 297.506 642.221 291.166 636.45 286.24L636.65 286.35L636.52 286.24C609.78 270.69 588.52 290.44 605.27 315.86C632.6 357.54 621.21 414.27 581.63 464.76C591.757 452.287 601.267 439.343 610.16 425.93C612.867 421.937 615.48 417.88 618 413.76ZM758.6 495.53H758.68C786.98 473.45 783.32 460.86 754.79 457.91C752.847 433.087 746.805 408.758 736.91 385.91C725.188 359.103 707.863 335.115 686.1 315.56L685.16 314.73C684.4 314.05 683.63 313.38 682.86 312.73L681.2 311.33L679.59 310C678.863 309.4 678.13 308.803 677.39 308.21L676.3 307.34C675.413 306.633 674.517 305.937 673.61 305.25L673 304.78C671.953 303.987 670.9 303.2 669.84 302.42L669.72 302.33C661.533 296.367 652.917 291.019 643.94 286.33L644.07 286.44L643.87 286.33C649.641 291.256 654.034 297.596 656.62 304.73C658.22 309.641 659.102 314.757 659.24 319.92C659.24 320.64 659.24 321.37 659.18 322.09C658.808 331.453 657.437 340.749 655.09 349.82C653.163 356.616 650.842 363.294 648.14 369.82C647.88 370.41 647.63 370.99 647.36 371.58C641.244 385.679 634.177 399.348 626.21 412.49L625.41 413.8C622.89 417.92 620.283 421.987 617.59 426C608.71 439.4 599.2 452.343 589.06 464.83C585.853 468.777 582.59 472.677 579.27 476.53C569.986 486.823 562.157 498.341 556 510.76C551.78 519.014 548.429 527.684 546 536.63C545.73 537.57 545.46 538.5 545.22 539.44C541.913 552.554 541.16 566.181 543 579.58C543 579.94 543.1 580.3 543.15 580.66C543.23 581.18 543.3 581.66 543.38 582.23C543.533 583.177 543.697 584.117 543.87 585.05C543.94 585.39 544.01 585.73 544.07 586.05C544.197 586.683 544.33 587.313 544.47 587.94C545.05 590.57 545.71 593.19 546.47 595.78C551.29 611.777 560.561 626.074 573.2 637C585.123 647.303 600.077 653.442 615.8 654.49C633.237 655.42 650.652 652.28 666.666 645.318C682.68 638.357 696.855 627.765 708.07 614.38C714.098 607.6 719.534 600.317 724.32 592.61C725.651 590.505 727.465 588.746 729.61 587.48C779.13 557.94 785.11 541.62 753.55 538.66C797.54 510.53 797.08 496.14 758.6 495.52V495.53ZM628.85 691.34C579.07 694.34 535.39 656.25 511.3 596.72L511.52 597.29L511.83 598.09C512.677 600.27 513.54 602.443 514.42 604.61L514.78 605.49C515.68 607.697 516.597 609.897 517.53 612.09L517.68 612.45C521.787 622.083 526.193 631.6 530.9 641L531.02 641.24C535.02 649.15 539.23 656.9 543.62 664.36C549.665 674.526 556.238 684.37 563.31 693.85L563.79 694.51C568.944 701.267 574.575 707.647 580.64 713.6C586.704 719.259 593.29 724.332 600.31 728.75L600.74 729.01C606.44 732.315 612.708 734.526 619.22 735.53C625.453 736.236 631.766 735.594 637.73 733.65L638.96 733.17V733.25C665.85 717.69 659.24 689.47 628.85 691.34ZM634.55 742.11C628.574 744.064 622.247 744.708 616 744C609.488 742.996 603.22 740.785 597.52 737.48L597.09 737.22C590.085 732.777 583.515 727.681 577.47 722C571.408 716.076 565.777 709.726 560.62 703L560.14 702.34C553.068 692.86 546.495 683.016 540.45 672.85C536.06 665.4 531.85 657.64 527.85 649.73L527.73 649.49C523.023 640.157 518.62 630.653 514.52 620.98L514.37 620.62C513.437 618.427 512.52 616.227 511.62 614.02L511.26 613.14C510.38 610.973 509.517 608.8 508.67 606.62L508.36 605.82L508.14 605.25C507.32 603.13 506.513 601.003 505.72 598.87L505.61 598.57C504.703 596.123 503.817 593.667 502.95 591.2C502.47 589.83 501.95 588.49 501.47 587.2C518.34 574.69 524.32 564.74 518.96 557.82C514.37 551.99 501.55 548.34 480.02 547.17L479.83 546.93C479.023 545.857 478.21 544.803 477.39 543.77C473.657 539.029 469.597 534.555 465.24 530.38C457.342 522.758 448.304 516.415 438.45 511.58C430.496 507.592 422.039 504.696 413.31 502.97C407.539 501.809 401.666 501.229 395.78 501.24H393.76C386.79 501.372 379.863 502.352 373.13 504.16H373.43C371.18 504.75 368.96 505.43 366.75 506.16C351.892 511.345 339.123 521.222 330.37 534.3C321.706 547.52 315.973 562.443 313.559 578.063C311.144 593.684 312.102 609.641 316.37 624.86C303.78 642.19 298.49 654.48 300.2 661.71C302.14 670.26 313.73 671.82 334.2 666.61C348.055 689.348 366.029 709.302 387.2 725.45C418.24 749.563 454.89 765.407 493.72 771.5H493.44L494.82 771.7L496.76 771.98L498.35 772.21C499.95 772.43 501.55 772.64 503.16 772.82C538.517 776.658 574.263 771.233 606.89 757.08L607 757C608.333 756.42 609.667 755.827 611 755.22L611.35 755.06C612.603 754.48 613.853 753.887 615.1 753.28L615.58 753.05C616.78 752.463 617.973 751.863 619.16 751.25L619.74 750.95C620.9 750.35 622.057 749.737 623.21 749.11L623.84 748.77C624.98 748.143 626.117 747.507 627.25 746.86L627.87 746.51C629.023 745.843 630.17 745.177 631.31 744.51L631.85 744.19C633.183 743.39 634.49 742.577 635.77 741.75C635.37 741.85 635 742 634.55 742.11Z" fill="white"/>
</g>
<defs>
<clipPath id="clip0_2_2085">
<rect width="1024" height="1024" fill="white"/>
</clipPath>
</defs>
</svg>
